X: 18510
T: I Don't Care
R: reel
M: 4/4
K: Dmajor
d|cAGA cA A2|EABd cA A2|cAGA cA A2|fgec d3d|
cAGA cA A2|EABd cA A2|cAEA EAFA|fgec d3d||
cdec dAAg|fgec dA A2|cdec dAAg|fgec d3d|
(3Bcd ec dAAg|fgec dA A2|agfa gfec|ABcA d3d||

